X: 10981
M: 2/4
L: 1/16
K: C
e3f d3e | cBcd c2B2 | A2G2A2B2 | c2e2G2G2 |\
e3f d3e | cBcd c2B2 | A2G2A2B2 | c2e2c2 H|]
z2 |\
e3g f3a | g4 e2c2 | a3c' d'c'ba | a4 g2f2 |\
e3g f3a | g2e'2d'2c'2 | b2b2 agab | "^D.C."g6 |]
e2 |\
c'd'c'b a2e2 | aebe c'ed'e | c'ed'e e'2d'c' | b2b2b2e2 |\
abag f2e2 | dedc B2f2 | e2c2 BABc | "^D.C."A6 |]


